X:3628
T:Cuil Aodh Jig, The
R:jig
S:Martin Hayes
Z:Devin McCabe
M:6/8
L:1/8
K:G
g|:gfd cAd|GFG B2c|dcB cAG|FDD cBA|
!~G3 GFG|A^GA fga|gfd cAd|1GAF G2g:|2GAF GBd|
!:~g3 gfg|ade fga|gfd c2d|cAG FGA|
!~g3 gfg|ade fga|gfd cAd|1GAF GBd:|2GAF G2g||


